material/.icons/material/zodiac-gemini.svg

<svg xmlns="http://www.w3.org/2000/svg" viewBox="0 0 24 24"><path d="M18 5.3c1.35-.33 2.66-.76 3.94-1.3l-.76-1.86a23.753 23.753 0 01-18.36.03L2.06 4c1.28.54 2.59.97 3.94 1.3v13.4c-1.35.33-2.66.76-3.94 1.3l.76 1.86a23.94 23.94 0 0118.36 0l.76-1.86c-1.28-.54-2.59-.97-3.94-1.3V5.3m-10 13V5.69c1.32.2 2.66.31 4 .31 1.34 0 2.68-.11 4-.31v12.62a26.17 26.17 0 00-8 0v-.01z"/></svg>

<?xml version="1.0" encoding="UTF-8"?><!DOCTYPE svg PUBLIC "-//W3C//DTD SVG 1.1//EN" "http://www.w3.org/Graphics/SVG/1.1/DTD/svg11.dtd"><svg xmlns="http://www.w3.org/2000/svg" xmlns:xlink="http://www.w3.org/1999/xlink" version="1.1" id="mdi-zodiac-gemini" width="24" height="24" viewBox="0 0 24 24"><path d="M18,5.3C19.35,4.97 20.66,4.54 21.94,4L21.18,2.14C18.27,3.36 15.15,4 12,4C8.85,4 5.73,3.38 2.82,2.17L2.06,4C3.34,4.54 4.65,4.97 6,5.3V18.7C4.65,19.03 3.34,19.46 2.06,20L2.82,21.86C8.7,19.42 15.3,19.42 21.18,21.86L21.94,20C20.66,19.46 19.35,19.03 18,18.7V5.3M8,18.3V5.69C9.32,5.89 10.66,6 12,6C13.34,6 14.68,5.89 16,5.69V18.31C13.35,17.9 10.65,17.9 8,18.31V18.3Z" /></svg>
